icons/modern/japanese-no-vacancy-button.svg

<svg width="32" height="32" viewBox="0 0 32 32" fill="none" xmlns="http://www.w3.org/2000/svg">
<g filter="url(#filter0_ii_18590_2735)">
<rect x="2.09033" y="2.0625" width="27.875" height="27.875" rx="3.6" fill="url(#paint0_linear_18590_2735)"/>
<rect x="2.09033" y="2.0625" width="27.875" height="27.875" rx="3.6" fill="url(#paint1_radial_18590_2735)"/>
</g>
<g filter="url(#filter1_f_18590_2735)">
<path d="M28.2778 4.5625V27.4375" stroke="url(#paint2_linear_18590_2735)" stroke-width="1.5" stroke-linecap="round"/>
</g>
<g filter="url(#filter2_f_18590_2735)">
<path d="M5.5542 3.875H27.3354" stroke="url(#paint3_linear_18590_2735)" stroke-width="1.5" stroke-linecap="round"/>
</g>
<g filter="url(#filter3_f_18590_2735)">
<path d="M8.65198 5.20671C8.26145 4.81619 7.62829 4.81619 7.23777 5.20671C6.84724 5.59724 6.84724 6.2304 7.23777 6.62093L8.65198 8.03514C9.0425 8.42566 9.67567 8.42566 10.0662 8.03514C10.4567 7.64461 10.4567 7.01145 10.0662 6.62093L8.65198 5.20671Z" fill="#EF2B54"/>
<path d="M16.2109 6.08603C15.6923 6.08603 15.2659 6.48077 15.2158 6.98617C15.2103 7.04113 15.1661 7.08603 15.1109 7.08603H13.2109C12.6586 7.08603 12.2109 7.53375 12.2109 8.08603C12.2109 8.63832 12.6586 9.08603 13.2109 9.08603H15.1109C15.1661 9.08603 15.2109 9.1308 15.2109 9.18603V9.98603C15.2109 10.0413 15.1661 10.086 15.1109 10.086H12.2109C11.6586 10.086 11.2109 10.5337 11.2109 11.086C11.2109 11.6383 11.6586 12.086 12.2109 12.086H18.1109C18.1661 12.086 18.2109 12.1308 18.2109 12.186V12.986C18.2109 13.0413 18.1661 13.086 18.1109 13.086H12.2109C11.6586 13.086 11.2109 13.5337 11.2109 14.086V26.086C11.2109 26.6383 11.6586 27.086 12.2109 27.086C12.7631 27.086 13.2109 26.6383 13.2109 26.086V15.186C13.2109 15.1308 13.2556 15.086 13.3109 15.086H18.1109C18.1661 15.086 18.2109 15.1308 18.2109 15.186V21.986C18.2109 22.0413 18.1661 22.086 18.1109 22.086H17.3109C17.2556 22.086 17.2109 22.0413 17.2109 21.986V20.086C17.2109 19.5337 16.7631 19.086 16.2109 19.086C15.6586 19.086 15.2109 19.5337 15.2109 20.086V24.086C15.2109 24.6383 15.6586 25.086 16.2109 25.086C16.7294 25.086 17.1558 24.6913 17.2059 24.1859C17.2114 24.1309 17.2556 24.086 17.3109 24.086H22.2109C22.7631 24.086 23.2109 23.6383 23.2109 23.086V20.086C23.2109 19.5337 22.7631 19.086 22.2109 19.086C21.6586 19.086 21.2109 19.5337 21.2109 20.086V21.986C21.2109 22.0413 21.1661 22.086 21.1109 22.086H20.3109C20.2556 22.086 20.2109 22.0413 20.2109 21.986V15.186C20.2109 15.1308 20.2556 15.086 20.3109 15.086H25.1109C25.1661 15.086 25.2109 15.1308 25.2109 15.186V24.986C25.2109 25.0413 25.1661 25.086 25.1109 25.086H23.2109C22.6586 25.086 22.2109 25.5337 22.2109 26.086C22.2109 26.6383 22.6586 27.086 23.2109 27.086H26.2109C26.7631 27.086 27.2109 26.6383 27.2109 26.086V14.086C27.2109 13.5337 26.7631 13.086 26.2109 13.086H20.3109C20.2556 13.086 20.2109 13.0413 20.2109 12.986V12.186C20.2109 12.1308 20.2556 12.086 20.3109 12.086H26.2109C26.7631 12.086 27.2109 11.6383 27.2109 11.086C27.2109 10.5337 26.7631 10.086 26.2109 10.086H23.3109C23.2556 10.086 23.2109 10.0413 23.2109 9.98603V9.18603C23.2109 9.1308 23.2556 9.08603 23.3109 9.08603H25.2109C25.7631 9.08603 26.2109 8.63832 26.2109 8.08603C26.2109 7.53375 25.7631 7.08603 25.2109 7.08603H23.3109C23.2556 7.08603 23.2114 7.04113 23.2059 6.98617C23.1558 6.48077 22.7294 6.08603 22.2109 6.08603C21.6923 6.08603 21.2659 6.48077 21.2158 6.98617C21.2103 7.04113 21.1661 7.08603 21.1109 7.08603H17.3109C17.2556 7.08603 17.2114 7.04113 17.2059 6.98617C17.1558 6.48077 16.7294 6.08603 16.2109 6.08603ZM21.1109 9.08603C21.1661 9.08603 21.2109 9.1308 21.2109 9.18603V9.98603C21.2109 10.0413 21.1661 10.086 21.1109 10.086H17.3109C17.2556 10.086 17.2109 10.0413 17.2109 9.98603V9.18603C17.2109 9.1308 17.2556 9.08603 17.3109 9.08603H21.1109Z" fill="#EF2B54"/>
<path d="M4.93182 24.6834C4.69842 25.1839 4.91497 25.7789 5.41551 26.0123C5.91605 26.2457 6.51103 26.0292 6.74444 25.5286L9.70276 19.1845C9.93617 18.6839 9.71961 18.0889 9.21908 17.8555C8.71853 17.6221 8.12355 17.8387 7.89015 18.3392L4.93182 24.6834Z" fill="#EF2B54"/>
<path d="M6.53073 10.1622C6.92126 9.77163 7.55442 9.77163 7.94495 10.1622L9.35916 11.5764C9.74969 11.9669 9.74969 12.6001 9.35916 12.9906C8.96864 13.3811 8.33547 13.3811 7.94495 12.9906L6.53073 11.5764C6.14021 11.1858 6.14021 10.5527 6.53073 10.1622Z" fill="#EF2B54"/>
</g>
<g filter="url(#filter4_ii_18590_2735)">
<path d="M8.65198 5.20671C8.26145 4.81619 7.62829 4.81619 7.23777 5.20671C6.84724 5.59724 6.84724 6.2304 7.23777 6.62093L8.65198 8.03514C9.0425 8.42566 9.67567 8.42566 10.0662 8.03514C10.4567 7.64461 10.4567 7.01145 10.0662 6.62093L8.65198 5.20671Z" fill="#FCF2FF"/>
<path d="M16.2109 6.08603C15.6923 6.08603 15.2659 6.48077 15.2158 6.98617C15.2103 7.04113 15.1661 7.08603 15.1109 7.08603H13.2109C12.6586 7.08603 12.2109 7.53375 12.2109 8.08603C12.2109 8.63832 12.6586 9.08603 13.2109 9.08603H15.1109C15.1661 9.08603 15.2109 9.1308 15.2109 9.18603V9.98603C15.2109 10.0413 15.1661 10.086 15.1109 10.086H12.2109C11.6586 10.086 11.2109 10.5337 11.2109 11.086C11.2109 11.6383 11.6586 12.086 12.2109 12.086H18.1109C18.1661 12.086 18.2109 12.1308 18.2109 12.186V12.986C18.2109 13.0413 18.1661 13.086 18.1109 13.086H12.2109C11.6586 13.086 11.2109 13.5337 11.2109 14.086V26.086C11.2109 26.6383 11.6586 27.086 12.2109 27.086C12.7631 27.086 13.2109 26.6383 13.2109 26.086V15.186C13.2109 15.1308 13.2556 15.086 13.3109 15.086H18.1109C18.1661 15.086 18.2109 15.1308 18.2109 15.186V21.986C18.2109 22.0413 18.1661 22.086 18.1109 22.086H17.3109C17.2556 22.086 17.2109 22.0413 17.2109 21.986V20.086C17.2109 19.5337 16.7631 19.086 16.2109 19.086C15.6586 19.086 15.2109 19.5337 15.2109 20.086V24.086C15.2109 24.6383 15.6586 25.086 16.2109 25.086C16.7294 25.086 17.1558 24.6913 17.2059 24.1859C17.2114 24.1309 17.2556 24.086 17.3109 24.086H22.2109C22.7631 24.086 23.2109 23.6383 23.2109 23.086V20.086C23.2109 19.5337 22.7631 19.086 22.2109 19.086C21.6586 19.086 21.2109 19.5337 21.2109 20.086V21.986C21.2109 22.0413 21.1661 22.086 21.1109 22.086H20.3109C20.2556 22.086 20.2109 22.0413 20.2109 21.986V15.186C20.2109 15.1308 20.2556 15.086 20.3109 15.086H25.1109C25.1661 15.086 25.2109 15.1308 25.2109 15.186V24.986C25.2109 25.0413 25.1661 25.086 25.1109 25.086H23.2109C22.6586 25.086 22.2109 25.5337 22.2109 26.086C22.2109 26.6383 22.6586 27.086 23.2109 27.086H26.2109C26.7631 27.086 27.2109 26.6383 27.2109 26.086V14.086C27.2109 13.5337 26.7631 13.086 26.2109 13.086H20.3109C20.2556 13.086 20.2109 13.0413 20.2109 12.986V12.186C20.2109 12.1308 20.2556 12.086 20.3109 12.086H26.2109C26.7631 12.086 27.2109 11.6383 27.2109 11.086C27.2109 10.5337 26.7631 10.086 26.2109 10.086H23.3109C23.2556 10.086 23.2109 10.0413 23.2109 9.98603V9.18603C23.2109 9.1308 23.2556 9.08603 23.3109 9.08603H25.2109C25.7631 9.08603 26.2109 8.63832 26.2109 8.08603C26.2109 7.53375 25.7631 7.08603 25.2109 7.08603H23.3109C23.2556 7.08603 23.2114 7.04113 23.2059 6.98617C23.1558 6.48077 22.7294 6.08603 22.2109 6.08603C21.6923 6.08603 21.2659 6.48077 21.2158 6.98617C21.2103 7.04113 21.1661 7.08603 21.1109 7.08603H17.3109C17.2556 7.08603 17.2114 7.04113 17.2059 6.98617C17.1558 6.48077 16.7294 6.08603 16.2109 6.08603ZM21.1109 9.08603C21.1661 9.08603 21.2109 9.1308 21.2109 9.18603V9.98603C21.2109 10.0413 21.1661 10.086 21.1109 10.086H17.3109C17.2556 10.086 17.2109 10.0413 17.2109 9.98603V9.18603C17.2109 9.1308 17.2556 9.08603 17.3109 9.08603H21.1109Z" fill="#FCF2FF"/>
<path d="M4.93182 24.6834C4.69842 25.1839 4.91497 25.7789 5.41551 26.0123C5.91605 26.2457 6.51103 26.0292 6.74444 25.5286L9.70276 19.1845C9.93617 18.6839 9.71961 18.0889 9.21908 17.8555C8.71853 17.6221 8.12355 17.8387 7.89015 18.3392L4.93182 24.6834Z" fill="#FCF2FF"/>
<path d="M6.53073 10.1622C6.92126 9.77163 7.55442 9.77163 7.94495 10.1622L9.35916 11.5764C9.74969 11.9669 9.74969 12.6001 9.35916 12.9906C8.96864 13.3811 8.33547 13.3811 7.94495 12.9906L6.53073 11.5764C6.14021 11.1858 6.14021 10.5527 6.53073 10.1622Z" fill="#FCF2FF"/>
</g>
<defs>
<filter id="filter0_ii_18590_2735" x="2.09033" y="1.0625" width="28.875" height="28.875" filterUnits="userSpaceOnUse" color-interpolation-filters="sRGB">
<feFlood flood-opacity="0" result="BackgroundImageFix"/>
<feBlend mode="normal" in="SourceGraphic" in2="BackgroundImageFix" result="shape"/>
<feColorMatrix in="SourceAlpha" type="matrix" values="0 0 0 0 0 0 0 0 0 0 0 0 0 0 0 0 0 0 127 0" result="hardAlpha"/>
<feOffset dx="1" dy="-1"/>
<feGaussianBlur stdDeviation="1.5"/>
<feComposite in2="hardAlpha" operator="arithmetic" k2="-1" k3="1"/>
<feColorMatrix type="matrix" values="0 0 0 0 0.901961 0 0 0 0 0.133333 0 0 0 0 0.337255 0 0 0 1 0"/>
<feBlend mode="normal" in2="shape" result="effect1_innerShadow_18590_2735"/>
<feColorMatrix in="SourceAlpha" type="matrix" values="0 0 0 0 0 0 0 0 0 0 0 0 0 0 0 0 0 0 127 0" result="hardAlpha"/>
<feOffset dy="-1"/>
<feGaussianBlur stdDeviation="1.5"/>
<feComposite in2="hardAlpha" operator="arithmetic" k2="-1" k3="1"/>
<feColorMatrix type="matrix" values="0 0 0 0 0.85098 0 0 0 0 0.168627 0 0 0 0 0.231373 0 0 0 1 0"/>
<feBlend mode="normal" in2="effect1_innerShadow_18590_2735" result="effect2_innerShadow_18590_2735"/>
</filter>
<filter id="filter1_f_18590_2735" x="25.5278" y="1.8125" width="5.5" height="28.375" filterUnits="userSpaceOnUse" color-interpolation-filters="sRGB">
<feFlood flood-opacity="0" result="BackgroundImageFix"/>
<feBlend mode="normal" in="SourceGraphic" in2="BackgroundImageFix" result="shape"/>
<feGaussianBlur stdDeviation="1" result="effect1_foregroundBlur_18590_2735"/>
</filter>
<filter id="filter2_f_18590_2735" x="2.8042" y="1.125" width="27.2812" height="5.5" filterUnits="userSpaceOnUse" color-interpolation-filters="sRGB">
<feFlood flood-opacity="0" result="BackgroundImageFix"/>
<feBlend mode="normal" in="SourceGraphic" in2="BackgroundImageFix" result="shape"/>
<feGaussianBlur stdDeviation="1" result="effect1_foregroundBlur_18590_2735"/>
</filter>
<filter id="filter3_f_18590_2735" x="3.83789" y="3.91382" width="24.3729" height="24.1722" filterUnits="userSpaceOnUse" color-interpolation-filters="sRGB">
<feFlood flood-opacity="0" result="BackgroundImageFix"/>
<feBlend mode="normal" in="SourceGraphic" in2="BackgroundImageFix" result="shape"/>
<feGaussianBlur stdDeviation="0.5" result="effect1_foregroundBlur_18590_2735"/>
</filter>
<filter id="filter4_ii_18590_2735" x="4.43789" y="4.51382" width="23.1729" height="22.9722" filterUnits="userSpaceOnUse" color-interpolation-filters="sRGB">
<feFlood flood-opacity="0" result="BackgroundImageFix"/>
<feBlend mode="normal" in="SourceGraphic" in2="BackgroundImageFix" result="shape"/>
<feColorMatrix in="SourceAlpha" type="matrix" values="0 0 0 0 0 0 0 0 0 0 0 0 0 0 0 0 0 0 127 0" result="hardAlpha"/>
<feOffset dx="-0.4" dy="0.4"/>
<feGaussianBlur stdDeviation="0.375"/>
<feComposite in2="hardAlpha" operator="arithmetic" k2="-1" k3="1"/>
<feColorMatrix type="matrix" values="0 0 0 0 0.913725 0 0 0 0 0.886275 0 0 0 0 0.968627 0 0 0 1 0"/>
<feBlend mode="normal" in2="shape" result="effect1_innerShadow_18590_2735"/>
<feColorMatrix in="SourceAlpha" type="matrix" values="0 0 0 0 0 0 0 0 0 0 0 0 0 0 0 0 0 0 127 0" result="hardAlpha"/>
<feOffset dx="0.4" dy="-0.4"/>
<feGaussianBlur stdDeviation="0.2"/>
<feComposite in2="hardAlpha" operator="arithmetic" k2="-1" k3="1"/>
<feColorMatrix type="matrix" values="0 0 0 0 1 0 0 0 0 0.988235 0 0 0 0 1 0 0 0 1 0"/>
<feBlend mode="normal" in2="effect1_innerShadow_18590_2735" result="effect2_innerShadow_18590_2735"/>
</filter>
<linearGradient id="paint0_linear_18590_2735" x1="16.0278" y1="5.63701" x2="16.0278" y2="38.8897" gradientUnits="userSpaceOnUse">
<stop stop-color="#FF4D91"/>
<stop offset="1" stop-color="#F34A5F"/>
</linearGradient>
<radialGradient id="paint1_radial_18590_2735" cx="0" cy="0" r="1" gradientUnits="userSpaceOnUse" gradientTransform="translate(27.7466 4.15625) rotate(136.771) scale(2.14444 2.50466)">
<stop stop-color="#FF77B1"/>
<stop offset="1" stop-color="#FF77B1" stop-opacity="0"/>
</radialGradient>
<linearGradient id="paint2_linear_18590_2735" x1="28.7778" y1="4.5625" x2="28.7778" y2="27.4375" gradientUnits="userSpaceOnUse">
<stop stop-color="#FF66A5"/>
<stop offset="1" stop-color="#FF5B6B"/>
</linearGradient>
<linearGradient id="paint3_linear_18590_2735" x1="28.4917" y1="4.12502" x2="2.96045" y2="4.12502" gradientUnits="userSpaceOnUse">
<stop stop-color="#FF60A3"/>
<stop offset="1" stop-color="#FF5495"/>
</linearGradient>
</defs>
</svg>

<svg width="32" height="32" fill="none" xmlns="http://www.w3.org/2000/svg"><g filter="url(#a)"><rect x="2.09" y="2.063" width="27.875" height="27.875" rx="3.6" fill="url(#b)"/><rect x="2.09" y="2.063" width="27.875" height="27.875" rx="3.6" fill="url(#c)"/></g><g filter="url(#d)"><path d="M28.278 4.563v22.875" stroke="url(#e)" stroke-width="1.5" stroke-linecap="round"/></g><g filter="url(#f)"><path d="M5.554 3.875h21.781" stroke="url(#g)" stroke-width="1.5" stroke-linecap="round"/></g><g filter="url(#h)" fill="#EF2B54"><path d="M8.652 5.207A1 1 0 0 0 7.238 6.62l1.414 1.414a1 1 0 0 0 1.414-1.414L8.652 5.207ZM16.21 6.086a1 1 0 0 0-.994.9.108.108 0 0 1-.105.1h-1.9a1 1 0 1 0 0 2h1.9a.1.1 0 0 1 .1.1v.8a.1.1 0 0 1-.1.1h-2.9a1 1 0 1 0 0 2h5.9a.1.1 0 0 1 .1.1v.8a.1.1 0 0 1-.1.1h-5.9a1 1 0 0 0-1 1v12a1 1 0 1 0 2 0v-10.9a.1.1 0 0 1 .1-.1h4.8a.1.1 0 0 1 .1.1v6.8a.1.1 0 0 1-.1.1h-.8a.1.1 0 0 1-.1-.1v-1.9a1 1 0 0 0-2 0v4a1 1 0 0 0 1.995.1c.005-.055.05-.1.105-.1h4.9a1 1 0 0 0 1-1v-3a1 1 0 0 0-2 0v1.9a.1.1 0 0 1-.1.1h-.8a.1.1 0 0 1-.1-.1v-6.8a.1.1 0 0 1 .1-.1h4.8a.1.1 0 0 1 .1.1v9.8a.1.1 0 0 1-.1.1h-1.9a1 1 0 1 0 0 2h3a1 1 0 0 0 1-1v-12a1 1 0 0 0-1-1h-5.9a.1.1 0 0 1-.1-.1v-.8a.1.1 0 0 1 .1-.1h5.9a1 1 0 0 0 0-2h-2.9a.1.1 0 0 1-.1-.1v-.8a.1.1 0 0 1 .1-.1h1.9a1 1 0 0 0 0-2h-1.9a.108.108 0 0 1-.105-.1 1 1 0 0 0-1.99 0 .108.108 0 0 1-.105.1h-3.8a.108.108 0 0 1-.105-.1 1 1 0 0 0-.995-.9Zm4.9 3a.1.1 0 0 1 .1.1v.8a.1.1 0 0 1-.1.1h-3.8a.1.1 0 0 1-.1-.1v-.8a.1.1 0 0 1 .1-.1h3.8ZM4.932 24.683a1 1 0 1 0 1.812.846l2.959-6.345a1 1 0 0 0-1.813-.845l-2.958 6.344ZM6.53 10.162a1 1 0 0 1 1.415 0l1.414 1.414a1 1 0 1 1-1.414 1.415l-1.414-1.415a1 1 0 0 1 0-1.414Z"/></g><g filter="url(#i)" fill="#FCF2FF"><path d="M8.652 5.207A1 1 0 0 0 7.238 6.62l1.414 1.414a1 1 0 0 0 1.414-1.414L8.652 5.207ZM16.21 6.086a1 1 0 0 0-.994.9.108.108 0 0 1-.105.1h-1.9a1 1 0 1 0 0 2h1.9a.1.1 0 0 1 .1.1v.8a.1.1 0 0 1-.1.1h-2.9a1 1 0 1 0 0 2h5.9a.1.1 0 0 1 .1.1v.8a.1.1 0 0 1-.1.1h-5.9a1 1 0 0 0-1 1v12a1 1 0 1 0 2 0v-10.9a.1.1 0 0 1 .1-.1h4.8a.1.1 0 0 1 .1.1v6.8a.1.1 0 0 1-.1.1h-.8a.1.1 0 0 1-.1-.1v-1.9a1 1 0 0 0-2 0v4a1 1 0 0 0 1.995.1c.005-.055.05-.1.105-.1h4.9a1 1 0 0 0 1-1v-3a1 1 0 0 0-2 0v1.9a.1.1 0 0 1-.1.1h-.8a.1.1 0 0 1-.1-.1v-6.8a.1.1 0 0 1 .1-.1h4.8a.1.1 0 0 1 .1.1v9.8a.1.1 0 0 1-.1.1h-1.9a1 1 0 1 0 0 2h3a1 1 0 0 0 1-1v-12a1 1 0 0 0-1-1h-5.9a.1.1 0 0 1-.1-.1v-.8a.1.1 0 0 1 .1-.1h5.9a1 1 0 0 0 0-2h-2.9a.1.1 0 0 1-.1-.1v-.8a.1.1 0 0 1 .1-.1h1.9a1 1 0 0 0 0-2h-1.9a.108.108 0 0 1-.105-.1 1 1 0 0 0-1.99 0 .108.108 0 0 1-.105.1h-3.8a.108.108 0 0 1-.105-.1 1 1 0 0 0-.995-.9Zm4.9 3a.1.1 0 0 1 .1.1v.8a.1.1 0 0 1-.1.1h-3.8a.1.1 0 0 1-.1-.1v-.8a.1.1 0 0 1 .1-.1h3.8ZM4.932 24.683a1 1 0 1 0 1.812.846l2.959-6.345a1 1 0 0 0-1.813-.845l-2.958 6.344ZM6.53 10.162a1 1 0 0 1 1.415 0l1.414 1.414a1 1 0 1 1-1.414 1.415l-1.414-1.415a1 1 0 0 1 0-1.414Z"/></g><defs><filter id="a" x="2.09" y="1.063" width="28.875" height="28.875" filterUnits="userSpaceOnUse" color-interpolation-filters="sRGB"><feFlood flood-opacity="0" result="BackgroundImageFix"/><feBlend in="SourceGraphic" in2="BackgroundImageFix" result="shape"/><feColorMatrix in="SourceAlpha" values="0 0 0 0 0 0 0 0 0 0 0 0 0 0 0 0 0 0 127 0" result="hardAlpha"/><feOffset dx="1" dy="-1"/><feGaussianBlur stdDeviation="1.5"/><feComposite in2="hardAlpha" operator="arithmetic" k2="-1" k3="1"/><feColorMatrix values="0 0 0 0 0.901961 0 0 0 0 0.133333 0 0 0 0 0.337255 0 0 0 1 0"/><feBlend in2="shape" result="effect1_innerShadow_18590_2735"/><feColorMatrix in="SourceAlpha" values="0 0 0 0 0 0 0 0 0 0 0 0 0 0 0 0 0 0 127 0" result="hardAlpha"/><feOffset dy="-1"/><feGaussianBlur stdDeviation="1.5"/><feComposite in2="hardAlpha" operator="arithmetic" k2="-1" k3="1"/><feColorMatrix values="0 0 0 0 0.85098 0 0 0 0 0.168627 0 0 0 0 0.231373 0 0 0 1 0"/><feBlend in2="effect1_innerShadow_18590_2735" result="effect2_innerShadow_18590_2735"/></filter><filter id="d" x="25.528" y="1.813" width="5.5" height="28.375" filterUnits="userSpaceOnUse" color-interpolation-filters="sRGB"><feFlood flood-opacity="0" result="BackgroundImageFix"/><feBlend in="SourceGraphic" in2="BackgroundImageFix" result="shape"/><feGaussianBlur stdDeviation="1" result="effect1_foregroundBlur_18590_2735"/></filter><filter id="f" x="2.804" y="1.125" width="27.281" height="5.5" filterUnits="userSpaceOnUse" color-interpolation-filters="sRGB"><feFlood flood-opacity="0" result="BackgroundImageFix"/><feBlend in="SourceGraphic" in2="BackgroundImageFix" result="shape"/><feGaussianBlur stdDeviation="1" result="effect1_foregroundBlur_18590_2735"/></filter><filter id="h" x="3.838" y="3.914" width="24.373" height="24.172" filterUnits="userSpaceOnUse" color-interpolation-filters="sRGB"><feFlood flood-opacity="0" result="BackgroundImageFix"/><feBlend in="SourceGraphic" in2="BackgroundImageFix" result="shape"/><feGaussianBlur stdDeviation=".5" result="effect1_foregroundBlur_18590_2735"/></filter><filter id="i" x="4.438" y="4.514" width="23.173" height="22.972" filterUnits="userSpaceOnUse" color-interpolation-filters="sRGB"><feFlood flood-opacity="0" result="BackgroundImageFix"/><feBlend in="SourceGraphic" in2="BackgroundImageFix" result="shape"/><feColorMatrix in="SourceAlpha" values="0 0 0 0 0 0 0 0 0 0 0 0 0 0 0 0 0 0 127 0" result="hardAlpha"/><feOffset dx="-.4" dy=".4"/><feGaussianBlur stdDeviation=".375"/><feComposite in2="hardAlpha" operator="arithmetic" k2="-1" k3="1"/><feColorMatrix values="0 0 0 0 0.913725 0 0 0 0 0.886275 0 0 0 0 0.968627 0 0 0 1 0"/><feBlend in2="shape" result="effect1_innerShadow_18590_2735"/><feColorMatrix in="SourceAlpha" values="0 0 0 0 0 0 0 0 0 0 0 0 0 0 0 0 0 0 127 0" result="hardAlpha"/><feOffset dx=".4" dy="-.4"/><feGaussianBlur stdDeviation=".2"/><feComposite in2="hardAlpha" operator="arithmetic" k2="-1" k3="1"/><feColorMatrix values="0 0 0 0 1 0 0 0 0 0.988235 0 0 0 0 1 0 0 0 1 0"/><feBlend in2="effect1_innerShadow_18590_2735" result="effect2_innerShadow_18590_2735"/></filter><linearGradient id="b" x1="16.028" y1="5.637" x2="16.028" y2="38.89" gradientUnits="userSpaceOnUse"><stop stop-color="#FF4D91"/><stop offset="1" stop-color="#F34A5F"/></linearGradient><linearGradient id="e" x1="28.778" y1="4.563" x2="28.778" y2="27.438" gradientUnits="userSpaceOnUse"><stop stop-color="#FF66A5"/><stop offset="1" stop-color="#FF5B6B"/></linearGradient><linearGradient id="g" x1="28.492" y1="4.125" x2="2.96" y2="4.125" gradientUnits="userSpaceOnUse"><stop stop-color="#FF60A3"/><stop offset="1" stop-color="#FF5495"/></linearGradient><radialGradient id="c" cx="0" cy="0" r="1" gradientUnits="userSpaceOnUse" gradientTransform="matrix(-1.56249 1.46876 -1.71548 -1.82495 27.747 4.156)"><stop stop-color="#FF77B1"/><stop offset="1" stop-color="#FF77B1" stop-opacity="0"/></radialGradient></defs></svg>
